build/images/logo-round.svg

<svg width="150" height="150" viewBox="0 0 150 150" fill="none" xmlns="http://www.w3.org/2000/svg">
<path fill-rule="evenodd" clip-rule="evenodd" d="M133.142 80.4869C131.18 110.558 106.133 134.372 75.5736 134.372C52.8073 134.372 33.112 121.161 23.7303 101.996C23.7303 101.996 45.6623 107.874 51.1475 109.344C51.9108 109.549 52.5498 110.084 52.8782 110.804C55.5498 116.53 60.6445 121.078 67.2215 122.841C76.0084 125.194 84.9818 121.925 90.3162 115.245C90.3162 115.245 78.5736 112.098 73.2392 110.67C71.8191 110.29 70.9759 108.83 71.3576 107.409C72.2274 104.172 73.7097 98.644 74.5795 95.4061C74.9611 93.986 76.4168 93.1428 77.8369 93.5236C83.1624 94.9508 94.9138 98.099 94.9138 98.099C94.7274 96.8999 94.4522 95.7239 94.0528 94.5895C108.618 93.7126 122.056 88.6117 133.142 80.4869Z" fill="#1446A0"/>
<path fill-rule="evenodd" clip-rule="evenodd" d="M57.0886 58.8436C59.3075 65.7445 64.8904 71.4002 72.417 73.415C78.9939 75.1777 85.6774 73.786 90.8608 70.1691C91.5088 69.7129 92.3165 69.5664 93.0887 69.7715C99.9407 71.6025 133.083 80.4836 133.083 80.4836C122.006 88.6085 108.577 93.7102 94.0118 94.5747C91.7928 87.673 86.21 82.0182 78.6834 80.0034C72.1064 78.2407 65.423 79.6324 60.2395 83.2484C59.5916 83.7055 58.7839 83.851 58.0206 83.6469C51.1597 81.8158 18.0176 72.9348 18.0176 72.9348C29.0945 64.8091 42.5235 59.7081 57.0886 58.8436Z" fill="white"/>
<path fill-rule="evenodd" clip-rule="evenodd" d="M57.0884 58.8438C59.3073 65.7446 64.8902 71.4003 72.4168 73.4151C78.9937 75.1778 85.6772 73.7861 90.8606 70.1692C91.5085 69.713 92.3162 69.5665 93.0884 69.7716C99.9405 71.6026 133.082 80.4837 133.082 80.4837C122.006 88.6086 108.577 93.7103 94.0115 94.5748C91.7926 87.6731 86.2097 82.0183 78.6831 80.0035C72.1062 78.2408 65.4227 79.6325 60.2393 83.2485C59.5914 83.7056 58.7837 83.8512 58.0204 83.647C51.1594 81.8159 18.0173 72.9349 18.0173 72.9349C29.0943 64.8092 42.5233 59.7082 57.0884 58.8438Z" fill="white"/>
<path fill-rule="evenodd" clip-rule="evenodd" d="M57.0884 58.8438C59.3073 65.7446 64.8902 71.4003 72.4168 73.4151C78.9937 75.1778 85.6772 73.7861 90.8606 70.1692C91.5085 69.713 92.3162 69.5665 93.0884 69.7716C99.9405 71.6026 133.082 80.4837 133.082 80.4837C122.006 88.6086 108.577 93.7103 94.0115 94.5748C91.7926 87.6731 86.2097 82.0183 78.6831 80.0035C72.1062 78.2408 65.4227 79.6325 60.2393 83.2485C59.5914 83.7056 58.7837 83.8512 58.0204 83.647C51.1594 81.8159 18.0173 72.9349 18.0173 72.9349C29.0943 64.8092 42.5233 59.7082 57.0884 58.8438Z" fill="url(#paint0_linear)"/>
<path fill-rule="evenodd" clip-rule="evenodd" d="M18.0173 72.8864C19.9789 42.8154 45.0262 19 75.5854 19C98.3516 19 118.047 32.2124 127.429 51.376C127.429 51.376 105.497 45.4985 100.011 44.0287C99.2481 43.8236 98.609 43.2884 98.2806 42.5686C95.609 36.8429 90.5144 32.295 83.9375 30.5322C75.1505 28.1793 66.1771 31.4473 60.8428 38.1272C60.8428 38.1272 72.5854 41.2754 77.9197 42.7026C79.3398 43.0834 80.183 44.5435 79.8013 45.9636C78.9315 49.2015 77.4493 54.7293 76.5794 57.9663C76.2067 59.3873 74.7421 60.2305 73.322 59.8497C67.9966 58.4225 56.2451 55.2742 56.2451 55.2742C56.4315 56.4724 56.7066 57.6485 57.106 58.7837C42.5409 59.6606 29.1031 64.7615 18.0173 72.8864Z" fill="#AF1A1A"/>
<path fill-rule="evenodd" clip-rule="evenodd" d="M133.154 80.4603L133.152 80.4819C122.067 88.6101 108.635 93.7166 94.0673 94.5844L94.0495 94.5411C108.61 93.6673 122.038 88.5706 133.121 80.4503L133.154 80.4603Z" fill="#AF1A1A"/>
<path fill-rule="evenodd" clip-rule="evenodd" d="M57.1041 58.8086L57.1219 58.8519C42.5617 59.7257 29.1337 64.8224 18.0508 72.9427L18.0173 72.9327L18.0194 72.9112C29.1042 64.783 42.536 59.6765 57.1041 58.8086Z" fill="#1446A0"/>
<mask id="mask0" mask-type="alpha" maskUnits="userSpaceOnUse" x="18" y="59" width="116" height="36">
<path fill-rule="evenodd" clip-rule="evenodd" d="M57.071 59C59.29 65.9009 64.8728 71.5566 72.3994 73.5714C78.9764 75.3341 85.6598 73.9423 90.8433 70.3255C91.4912 69.8692 92.2989 69.7228 93.0711 69.9278C99.9232 71.7589 133.065 80.64 133.065 80.64C121.988 88.7648 108.559 93.8666 93.9942 94.7311C91.7753 87.8293 86.1924 82.1746 78.6658 80.1598C72.0889 78.3971 65.4054 79.7888 60.222 83.4048C59.574 83.8619 58.7663 84.0074 58.003 83.8033C51.1421 81.9722 18 73.0912 18 73.0912C29.0769 64.9654 42.5059 59.8645 57.071 59Z" fill="#FF0000"/>
</mask>
<g mask="url(#mask0)">
<g filter="url(#filter0_f)">
<circle cx="30" cy="44" r="25" fill="black"/>
</g>
<g filter="url(#filter1_f)">
<circle cx="122" cy="110" r="25" fill="black"/>
</g>
</g>
<defs>
<filter id="filter0_f" x="-15" y="-1" width="90" height="90" filterUnits="userSpaceOnUse" color-interpolation-filters="sRGB">
<feFlood flood-opacity="0" result="BackgroundImageFix"/>
<feBlend mode="normal" in="SourceGraphic" in2="BackgroundImageFix" result="shape"/>
<feGaussianBlur stdDeviation="10" result="effect1_foregroundBlur"/>
</filter>
<filter id="filter1_f" x="77" y="65" width="90" height="90" filterUnits="userSpaceOnUse" color-interpolation-filters="sRGB">
<feFlood flood-opacity="0" result="BackgroundImageFix"/>
<feBlend mode="normal" in="SourceGraphic" in2="BackgroundImageFix" result="shape"/>
<feGaussianBlur stdDeviation="10" result="effect1_foregroundBlur"/>
</filter>
<linearGradient id="paint0_linear" x1="-80.5003" y1="28.2881" x2="216" y2="119.288" gradientUnits="userSpaceOnUse">
<stop stop-color="#170F11" stop-opacity="0.5"/>
<stop offset="0.52879" stop-color="white" stop-opacity="0.567397"/>
<stop offset="1" stop-color="#170F11" stop-opacity="0.5"/>
</linearGradient>
</defs>
</svg>

<svg width="150" height="150" viewBox="0 0 150 150" fill="none" xmlns="http://www.w3.org/2000/svg"><path fill-rule="evenodd" clip-rule="evenodd" d="M133.142 80.487c-1.962 30.071-27.009 53.885-57.568 53.885-22.767 0-42.462-13.211-51.844-32.376l27.418 7.348c.763.205 1.402.74 1.73 1.46 2.672 5.726 7.767 10.274 14.344 12.037 8.786 2.353 17.76-.916 23.094-7.596 0 0-11.742-3.147-17.077-4.575a2.66 2.66 0 01-1.881-3.261c.87-3.237 2.352-8.765 3.221-12.003a2.66 2.66 0 013.258-1.882l17.077 4.575a19.623 19.623 0 00-.861-3.51 73.45 73.45 0 0039.089-14.102z" fill="#1446A0"/><path fill-rule="evenodd" clip-rule="evenodd" d="M57.089 58.844a22.057 22.057 0 0015.328 14.571c6.577 1.763 13.26.371 18.444-3.246a2.663 2.663 0 012.228-.397c6.852 1.83 39.994 10.712 39.994 10.712a73.249 73.249 0 01-39.071 14.09 22.056 22.056 0 00-15.329-14.57c-6.577-1.763-13.26-.372-18.444 3.244a2.65 2.65 0 01-2.218.399c-6.861-1.831-40.003-10.712-40.003-10.712a73.242 73.242 0 0139.07-14.091z" fill="#fff"/><path fill-rule="evenodd" clip-rule="evenodd" d="M57.088 58.844a22.057 22.057 0 0015.329 14.571c6.577 1.763 13.26.371 18.444-3.246a2.663 2.663 0 012.227-.397c6.853 1.83 39.994 10.712 39.994 10.712a73.243 73.243 0 01-39.07 14.09 22.055 22.055 0 00-15.329-14.57c-6.577-1.763-13.26-.372-18.444 3.245a2.65 2.65 0 01-2.219.398 94628.547 94628.547 0 01-40.003-10.712 73.241 73.241 0 0139.071-14.091z" fill="#fff"/><path fill-rule="evenodd" clip-rule="evenodd" d="M57.088 58.844a22.057 22.057 0 0015.329 14.571c6.577 1.763 13.26.371 18.444-3.246a2.663 2.663 0 012.227-.397c6.853 1.83 39.994 10.712 39.994 10.712a73.243 73.243 0 01-39.07 14.09 22.055 22.055 0 00-15.329-14.57c-6.577-1.763-13.26-.372-18.444 3.245a2.65 2.65 0 01-2.219.398 94628.547 94628.547 0 01-40.003-10.712 73.241 73.241 0 0139.071-14.091z" fill="url(#paint0_linear)"/><path fill-rule="evenodd" clip-rule="evenodd" d="M18.017 72.886C19.98 42.816 45.027 19 75.585 19c22.767 0 42.462 13.212 51.844 32.376l-27.418-7.347a2.663 2.663 0 01-1.73-1.46c-2.672-5.726-7.767-10.274-14.344-12.037-8.787-2.353-17.76.915-23.094 7.595 0 0 11.742 3.148 17.077 4.576a2.662 2.662 0 011.881 3.26c-.87 3.239-2.352 8.766-3.222 12.003a2.655 2.655 0 01-3.257 1.884c-5.325-1.428-17.077-4.576-17.077-4.576.187 1.198.462 2.374.861 3.51a73.448 73.448 0 00-39.089 14.102zM133.154 80.46l-.002.022c-11.085 8.128-24.517 13.235-39.085 14.102l-.017-.043a73.396 73.396 0 0039.071-14.09l.033.01z" fill="#AF1A1A"/><path fill-rule="evenodd" clip-rule="evenodd" d="M57.104 58.809l.018.043a73.396 73.396 0 00-39.071 14.09l-.034-.01.002-.02c11.085-8.129 24.517-13.236 39.085-14.103z" fill="#1446A0"/><mask id="a" maskUnits="userSpaceOnUse" x="18" y="59" width="116" height="36"><path fill-rule="evenodd" clip-rule="evenodd" d="M57.071 59a22.057 22.057 0 0015.328 14.571c6.577 1.763 13.26.371 18.444-3.245a2.663 2.663 0 012.228-.398c6.852 1.83 39.994 10.712 39.994 10.712a73.25 73.25 0 01-39.07 14.091 22.055 22.055 0 00-15.33-14.571c-6.576-1.763-13.26-.371-18.443 3.245a2.65 2.65 0 01-2.219.398C51.143 81.973 18 73.091 18 73.091A73.24 73.24 0 0157.071 59z" fill="red"/></mask><g mask="url(#a)"><g filter="url(#filter0_f)"><circle cx="30" cy="44" r="25" fill="#000"/></g><g filter="url(#filter1_f)"><circle cx="122" cy="110" r="25" fill="#000"/></g></g><defs><filter id="filter0_f" x="-15" y="-1" width="90" height="90" filterUnits="userSpaceOnUse" color-interpolation-filters="sRGB"><feFlood flood-opacity="0" result="BackgroundImageFix"/><feBlend in="SourceGraphic" in2="BackgroundImageFix" result="shape"/><feGaussianBlur stdDeviation="10" result="effect1_foregroundBlur"/></filter><filter id="filter1_f" x="77" y="65" width="90" height="90" filterUnits="userSpaceOnUse" color-interpolation-filters="sRGB"><feFlood flood-opacity="0" result="BackgroundImageFix"/><feBlend in="SourceGraphic" in2="BackgroundImageFix" result="shape"/><feGaussianBlur stdDeviation="10" result="effect1_foregroundBlur"/></filter><linearGradient id="paint0_linear" x1="-80.5" y1="28.288" x2="216" y2="119.288" gradientUnits="userSpaceOnUse"><stop stop-color="#170F11" stop-opacity=".5"/><stop offset=".529" stop-color="#fff" stop-opacity=".567"/><stop offset="1" stop-color="#170F11" stop-opacity=".5"/></linearGradient></defs></svg>
